X:30
T:T020B- Rogue Erra Duff. The Black Rogue
S:O'Farrell's National Irish Music (1804)
Q:1/4=120
L:1/8
M:6/8
K:Em
g/f/e/|dBB BAB|eBBB2g/e/|dBB BAB|GEEE2g|eBB BAB|\
dBB BAG|A2A BAB|GEEE2::e/f/|g3a3|bge dcB|g2g aga|\
bge e2g/a/|bc'b agf|gfe e/f/ge|dBB BAB|EEE2:|]

